brandFactory_export/1.Light/Promociones_Ofertas_1Light.svg

<?xml version="1.0" encoding="UTF-8"?>
<svg width="24px" height="24px" viewBox="0 0 24 24" version="1.1" xmlns="http://www.w3.org/2000/svg" xmlns:xlink="http://www.w3.org/1999/xlink">
    <title>1.Light/Promociones_Ofertas_1Light</title>
    <g id="Symbols" stroke="none" stroke-width="1" fill="none" fill-rule="evenodd">
        <g id="1.Light/Promociones_Ofertas_1Light" fill="#5CB615" fill-rule="nonzero">
            <path d="M11.8117647,0.00336134454 C12.497479,0.00336134454 12.9378151,0.810084034 13.3680672,1.58655462 C13.6235294,2.05378151 13.9764706,2.69579832 14.2352941,2.76638655 C14.5176471,2.84033613 15.1361345,2.46722689 15.6302521,2.16806723 C16.4067227,1.69747899 17.1428571,1.25378151 17.7142857,1.58655462 C18.2957983,1.92268908 18.2756303,2.78991597 18.2554622,3.70756303 C18.2453782,4.25210084 18.2285714,4.99495798 18.4268908,5.19327731 C18.6252101,5.39159664 19.3714286,5.37478992 19.912605,5.36470588 C20.8302521,5.34453782 21.697479,5.32773109 22.0336134,5.90588235 C22.3630252,6.47731092 21.9193277,7.21344538 21.4521008,7.98991597 C21.1529412,8.48739496 20.7764706,9.10588235 20.8537815,9.38487395 C20.9243697,9.64369748 21.5663866,9.99663866 22.0336134,10.2521008 C22.8134454,10.6789916 23.6168067,11.1226891 23.6168067,11.8084034 C23.6168067,12.4941176 22.810084,12.9344538 22.0336134,13.3647059 C21.5663866,13.6201681 20.9243697,13.9731092 20.8537815,14.2319328 C20.7798319,14.5142857 21.1529412,15.1327731 21.4521008,15.6268908 C21.9226891,16.4033613 22.3663866,17.1394958 22.0336134,17.7109244 C21.697479,18.292437 20.8302521,18.2722689 19.912605,18.2521008 C19.3680672,18.2420168 18.6252101,18.2252101 18.4268908,18.4235294 C18.2285714,18.6218487 18.2453782,19.3680672 18.2554622,19.9092437 C18.2756303,20.8268908 18.292437,21.6941176 17.7142857,22.0302521 C17.1428571,22.3596639 16.4067227,21.9159664 15.6302521,21.4487395 C15.1327731,21.1495798 14.5142857,20.7731092 14.2352941,20.8504202 C13.9764706,20.9210084 13.6235294,21.5630252 13.3680672,22.0302521 C12.9378151,22.8134454 12.497479,23.6168067 11.8117647,23.6168067 C11.1260504,23.6168067 10.6857143,22.810084 10.2554622,22.0336134 C10,21.5663866 9.64705882,20.9243697 9.38823529,20.8537815 C9.10588235,20.7798319 8.48739496,21.1529412 7.98991597,21.4521008 C7.21344538,21.9226891 6.47731092,22.3663866 5.90588235,22.0336134 C5.32436975,21.697479 5.34453782,20.8302521 5.36470588,19.912605 C5.37478992,19.3680672 5.39159664,18.6252101 5.19327731,18.4268908 C4.99495798,18.2285714 4.2487395,18.2453782 3.70756303,18.2554622 C2.78991597,18.2756303 1.92268908,18.292437 1.58655462,17.7142857 C1.25714286,17.1428571 1.70084034,16.4067227 2.16806723,15.6302521 C2.46722689,15.1327731 2.84369748,14.5142857 2.76638655,14.2352941 C2.69579832,13.9764706 2.05378151,13.6235294 1.58655462,13.3680672 L1.29448529,13.2057904 C0.617647059,12.8238971 5.67279557e-11,12.4117647 5.67279557e-11,11.8117647 C5.67279557e-11,11.1260504 0.806722689,10.6857143 1.58319328,10.2554622 C2.05042017,10 2.69243697,9.64705882 2.76302521,9.38823529 C2.83697479,9.10588235 2.46386555,8.48739496 2.16470588,7.98991597 C1.69411765,7.21344538 1.25042017,6.47731092 1.58319328,5.90588235 C1.91932773,5.32436975 2.78655462,5.34453782 3.70420168,5.36470588 C4.2487395,5.37478992 4.99159664,5.39159664 5.18991597,5.19327731 C5.38823529,4.99495798 5.37142857,4.2487395 5.36134454,3.70756303 C5.34117647,2.78991597 5.32436975,1.92268908 5.90252101,1.58655462 C6.47394958,1.25714286 7.21008403,1.70084034 7.98655462,2.16806723 C8.48403361,2.46722689 9.10252101,2.84369748 9.38151261,2.76638655 C9.64033613,2.69579832 9.99327731,2.05378151 10.2487395,1.58655462 C10.6823529,0.810084034 11.1260504,0.00336134454 11.8117647,0.00336134454 Z M11.8117647,0.682352941 C11.5260504,0.682352941 11.1327731,1.39495798 10.8470588,1.91932773 C10.4638655,2.61848739 10.097479,3.28067227 9.56302521,3.42521008 C9.48235294,3.44537815 9.39831933,3.45882353 9.31092437,3.45546218 C8.81008403,3.45546218 8.24201681,3.11260504 7.64369748,2.74957983 C7.17647059,2.46722689 6.47058824,2.04033613 6.24201681,2.17142857 C6.00672269,2.3092437 6.02352941,3.14285714 6.03697479,3.69411765 C6.05378151,4.50420168 6.07058824,5.27058824 5.67058824,5.67058824 C5.27058824,6.07058824 4.50420168,6.05378151 3.69411765,6.03697479 C3.14285714,6.02352941 2.30588235,6.00672269 2.17142857,6.24201681 C2.04033613,6.47058824 2.46722689,7.17647059 2.74957983,7.64369748 C3.17310924,8.34285714 3.57310924,9.00504202 3.42184874,9.56302521 C3.27731092,10.1008403 2.6184874,10.4638655 1.91596639,10.8470588 C1.39495798,11.1327731 0.678991597,11.5260504 0.678991597,11.8117647 C0.678991597,12.097479 1.39159664,12.4907563 1.91596639,12.7764706 C2.61512605,13.1596639 3.27731092,13.5260504 3.42184874,14.0605042 C3.5697479,14.6184874 3.17310924,15.2773109 2.74957983,15.9798319 C2.46722689,16.4504202 2.04033613,17.1563025 2.17142857,17.3815126 C2.3092437,17.6168067 3.14285714,17.6 3.69411765,17.589916 C4.50420168,17.5731092 5.27058824,17.5563025 5.67058824,17.9563025 C6.07058824,18.3563025 6.05378151,19.1226891 6.03697479,19.9327731 C6.02352941,20.4840336 6.00672269,21.3210084 6.24201681,21.4554622 C6.47058824,21.5865546 7.17647059,21.1596639 7.64369748,20.8773109 C8.23865546,20.5176471 8.81008403,20.1747899 9.31092437,20.1747899 C9.39495798,20.1747899 9.4789916,20.1848739 9.56302521,20.2084034 C10.1008403,20.3529412 10.4638655,21.0117647 10.8470588,21.7142857 C11.1327731,22.2352941 11.5260504,22.9512605 11.8117647,22.9512605 C12.097479,22.9512605 12.4907563,22.2386555 12.7764706,21.7142857 C13.1596639,21.0151261 13.5260504,20.3529412 14.0605042,20.2084034 C14.6184874,20.0605042 15.2773109,20.4605042 15.9798319,20.8806723 C16.4470588,21.1630252 17.1529412,21.589916 17.3815126,21.4588235 C17.6168067,21.3210084 17.6,20.487395 17.589916,19.9361345 C17.5731092,19.1260504 17.5563025,18.3596639 17.9563025,17.9596639 C18.3563025,17.5596639 19.1226891,17.5731092 19.9327731,17.5932773 C20.4840336,17.6033613 21.3210084,17.6235294 21.4554622,17.3848739 C21.5865546,17.1563025 21.1596639,16.4504202 20.8773109,15.9831933 C20.4537815,15.2840336 20.0537815,14.6218487 20.205042,14.0638655 C20.3495798,13.5260504 21.0084034,13.1630252 21.7109244,12.7798319 C22.2319328,12.4941176 22.9478992,12.1008403 22.9478992,11.8151261 C22.9478992,11.5294118 22.2352941,11.1361345 21.7109244,10.8504202 C21.0117647,10.4672269 20.3495798,10.1008403 20.205042,9.56638655 C20.0571429,9.00840336 20.4571429,8.34957983 20.8773109,7.64705882 C21.1596639,7.17983193 21.5865546,6.47394958 21.4554622,6.24537815 C21.3176471,6.01008403 20.4840336,6.02689076 19.9327731,6.04033613 C19.1226891,6.05714286 18.3563025,6.07394958 17.9563025,5.67394958 C17.5563025,5.27394958 17.5697479,4.50756303 17.589916,3.69747899 C17.6,3.14621849 17.6201681,2.3092437 17.3815126,2.17478992 C17.1529412,2.04369748 16.4470588,2.47058824 15.9798319,2.75294118 C15.2806723,3.17647059 14.6184874,3.57647059 14.0605042,3.42521008 C13.5226891,3.28067227 13.1596639,2.62184874 12.7764706,1.91932773 C12.4907563,1.39831933 12.097479,0.682352941 11.8117647,0.682352941 Z M16.0840336,6.34621849 C16.2285714,6.4605042 16.2554622,6.67226891 16.1411765,6.81680672 L8.00672269,17.2168067 C7.94285714,17.3008403 7.84537815,17.3478992 7.74117647,17.3478992 C7.55630252,17.3478992 7.40504202,17.1966387 7.40504202,17.0117647 C7.40504202,16.9378151 7.42857143,16.8638655 7.47563025,16.8033613 L15.6134454,6.40336134 C15.7277311,6.25882353 15.9394958,6.23193277 16.0840336,6.34621849 Z M14.605042,13.1697479 C15.2033613,13.1697479 15.6739496,13.3310924 16.0033613,13.6504202 C16.3462185,13.9798319 16.5210084,14.4638655 16.5210084,15.0857143 C16.5210084,15.707563 16.3462185,16.1915966 16.0033613,16.5210084 C15.6773109,16.8403361 15.2067227,17.0016807 14.6084034,17.0016807 C14.010084,17.0016807 13.5394958,16.8403361 13.210084,16.5210084 C12.8672269,16.1915966 12.692437,15.707563 12.692437,15.0857143 C12.692437,14.4638655 12.8672269,13.9798319 13.2067227,13.6504202 C13.5361345,13.3310924 14.0067227,13.1697479 14.605042,13.1697479 Z M14.6084034,13.8453782 C13.7478992,13.8453782 13.3647059,14.2285714 13.3647059,15.0890756 C13.3647059,15.9495798 13.7478992,16.3327731 14.6084034,16.3327731 C15.4689076,16.3327731 15.8521008,15.9495798 15.8521008,15.0890756 C15.8521008,14.2285714 15.4689076,13.8453782 14.6084034,13.8453782 Z M9.01176471,6.61512605 C9.61008403,6.61512605 10.0806723,6.77647059 10.410084,7.09579832 C10.7529412,7.42521008 10.9277311,7.9092437 10.9277311,8.53109244 C10.9277311,9.15294118 10.7529412,9.63697479 10.410084,9.96638655 C10.0806723,10.2857143 9.61008403,10.4470588 9.01176471,10.4470588 C8.41344538,10.4470588 7.94285714,10.2857143 7.61344538,9.96638655 C7.27058824,9.63697479 7.09579832,9.15294118 7.09579832,8.53109244 C7.09579832,7.9092437 7.27058824,7.42521008 7.61344538,7.09579832 C7.94285714,6.77647059 8.41344538,6.61512605 9.01176471,6.61512605 Z M9.01176471,7.2907563 C8.1512605,7.2907563 7.76806723,7.67394958 7.76806723,8.53445378 C7.76806723,9.39495798 8.1512605,9.77815126 9.01176471,9.77815126 C9.87226891,9.77815126 10.2554622,9.39495798 10.2554622,8.53445378 C10.2554622,7.67394958 9.87226891,7.2907563 9.01176471,7.2907563 Z" id="Promociones_Ofertas_1Light"></path>
        </g>
    </g>
</svg>

<svg width="24" height="24" viewBox="0 0 24 24" xmlns="http://www.w3.org/2000/svg"><path d="M11.812.003c.685 0 1.126.807 1.556 1.584.256.467.608 1.109.867 1.18.283.073.901-.3 1.395-.599.777-.47 1.513-.914 2.084-.581.582.336.562 1.203.541 2.12-.01.545-.026 1.288.172 1.486.198.199.944.182 1.486.172.917-.02 1.784-.037 2.12.54.33.572-.114 1.308-.58 2.085-.3.497-.677 1.116-.6 1.395.071.259.713.612 1.18.867.78.427 1.584.87 1.584 1.556s-.807 1.126-1.583 1.557c-.468.255-1.11.608-1.18.867-.074.282.299.9.598 1.395.47.776.914 1.512.582 2.084-.337.581-1.204.561-2.121.541-.545-.01-1.288-.027-1.486.172-.198.198-.182.944-.172 1.485.02.918.037 1.785-.54 2.121-.572.33-1.308-.114-2.085-.581-.497-.3-1.116-.676-1.395-.599-.259.071-.611.713-.867 1.18-.43.783-.87 1.587-1.556 1.587s-1.126-.807-1.557-1.583c-.255-.468-.608-1.11-.867-1.18-.282-.074-.9.299-1.398.598-.777.47-1.513.914-2.084.582-.582-.337-.561-1.204-.541-2.121.01-.545.027-1.288-.172-1.486-.198-.198-.944-.182-1.485-.172-.918.02-1.785.037-2.121-.54-.33-.572.114-1.308.581-2.085.3-.497.676-1.116.598-1.395-.07-.259-.712-.611-1.18-.867l-.292-.162C.618 12.824 0 12.412 0 11.812c0-.686.807-1.126 1.583-1.557.467-.255 1.11-.608 1.18-.867.074-.282-.3-.9-.598-1.398-.47-.777-.915-1.513-.582-2.084.336-.582 1.204-.561 2.121-.541.545.01 1.288.027 1.486-.172.198-.198.181-.944.171-1.485-.02-.918-.037-1.785.542-2.121.57-.33 1.307.114 2.084.581.497.3 1.116.676 1.395.598.258-.07.611-.712.867-1.18.433-.776.877-1.583 1.563-1.583zm0 .68c-.286 0-.68.712-.965 1.236-.383.7-.75 1.362-1.284 1.506a.894.894 0 01-.252.03c-.5 0-1.069-.342-1.667-.705-.468-.283-1.173-.71-1.402-.579-.235.138-.218.972-.205 1.523.017.81.034 1.577-.366 1.977-.4.4-1.167.383-1.977.366-.551-.013-1.388-.03-1.523.205-.13.229.296.934.579 1.402.423.699.823 1.361.672 1.919-.145.538-.804.9-1.506 1.284-.521.286-1.237.68-1.237.965 0 .285.713.679 1.237.964.7.384 1.361.75 1.506 1.285.148.557-.249 1.216-.672 1.919-.283.47-.71 1.176-.579 1.402.138.235.972.218 1.523.208.81-.017 1.577-.034 1.977.366.4.4.383 1.167.366 1.977-.013.551-.03 1.388.205 1.522.229.132.934-.295 1.402-.578.595-.36 1.166-.702 1.667-.702.084 0 .168.01.252.033.538.145.9.804 1.284 1.506.286.521.68 1.237.965 1.237.285 0 .679-.712.964-1.237.384-.699.75-1.361 1.285-1.506.557-.147 1.216.253 1.919.673.467.282 1.173.709 1.402.578.235-.138.218-.972.208-1.523-.017-.81-.034-1.576.366-1.976.4-.4 1.167-.387 1.977-.367.551.01 1.388.03 1.522-.208.132-.229-.295-.935-.578-1.402-.423-.699-.823-1.361-.672-1.92.145-.537.803-.9 1.506-1.283.52-.286 1.237-.68 1.237-.965 0-.286-.713-.679-1.237-.965-.7-.383-1.361-.75-1.506-1.284-.148-.558.252-1.216.672-1.919.283-.467.71-1.173.578-1.402-.137-.235-.971-.218-1.522-.205-.81.017-1.577.034-1.977-.366-.4-.4-.386-1.166-.366-1.977.01-.55.03-1.388-.208-1.522-.23-.131-.935.296-1.402.578-.7.423-1.362.823-1.92.672-.537-.144-.9-.803-1.284-1.506-.285-.52-.679-1.237-.964-1.237zm4.272 5.663a.336.336 0 01.057.47l-8.134 10.4a.331.331 0 01-.266.132.337.337 0 01-.265-.545l8.137-10.4a.336.336 0 01.471-.057zm-1.479 6.824c.598 0 1.069.161 1.398.48.343.33.518.814.518 1.436s-.175 1.106-.518 1.435c-.326.32-.796.48-1.395.48-.598 0-1.069-.16-1.398-.48-.343-.33-.518-.813-.518-1.435 0-.622.175-1.106.515-1.436.33-.319.8-.48 1.398-.48zm.003.675c-.86 0-1.243.384-1.243 1.244s.383 1.244 1.243 1.244c.86 0 1.244-.383 1.244-1.244 0-.86-.383-1.244-1.244-1.244zm-5.596-7.23c.598 0 1.069.161 1.398.48.343.33.518.814.518 1.436s-.175 1.106-.518 1.435c-.33.32-.8.481-1.398.481-.599 0-1.07-.161-1.399-.48-.342-.33-.517-.814-.517-1.436s.175-1.106.517-1.435c.33-.32.8-.48 1.399-.48zm0 .676c-.86 0-1.244.383-1.244 1.243 0 .861.383 1.244 1.244 1.244.86 0 1.243-.383 1.243-1.244 0-.86-.383-1.243-1.243-1.243z" fill="#5CB615" fill-rule="nonzero"/></svg>
